source/img/icon-black-vk.svg

<svg width="14" height="8" viewBox="0 0 14 8" fill="none" xmlns="http://www.w3.org/2000/svg">
<path d="M13.1294 6.88535C13.1139 6.85288 13.0995 6.82596 13.0861 6.80439C12.8648 6.41569 12.4419 5.9386 11.8175 5.37297L11.8044 5.36002L11.7978 5.35367L11.7911 5.34716H11.7844C11.501 5.08377 11.3216 4.90668 11.2465 4.81601C11.109 4.64329 11.0782 4.46846 11.1533 4.29132C11.2064 4.15749 11.4058 3.87484 11.7511 3.44301C11.9327 3.21415 12.0765 3.03072 12.1828 2.89253C12.9488 1.89942 13.281 1.26481 13.1791 0.988446L13.1395 0.923865C13.1129 0.884984 13.0443 0.849415 12.9337 0.816977C12.8229 0.784607 12.6812 0.779253 12.5085 0.800826L10.5957 0.81371C10.5647 0.803003 10.5205 0.804001 10.4628 0.816977C10.4053 0.829952 10.3765 0.836463 10.3765 0.836463L10.3432 0.852682L10.3167 0.872167C10.2946 0.885052 10.2702 0.907714 10.2437 0.940107C10.2172 0.972386 10.1951 1.01027 10.1774 1.05344C9.96915 1.57587 9.73238 2.06161 9.46664 2.51062C9.3028 2.77836 9.15233 3.0104 9.01492 3.20686C8.87769 3.40326 8.76256 3.54797 8.66964 3.64072C8.57659 3.73357 8.49261 3.80795 8.41719 3.86414C8.34189 3.92035 8.28441 3.9441 8.2446 3.93541C8.20471 3.92672 8.16714 3.9181 8.13157 3.90948C8.06962 3.8706 8.01979 3.81772 7.98222 3.75081C7.94448 3.68389 7.91908 3.59966 7.9058 3.4982C7.89258 3.39666 7.88477 3.30933 7.88253 3.2359C7.88046 3.16256 7.88142 3.05883 7.88591 2.92499C7.89051 2.79109 7.89258 2.70049 7.89258 2.65299C7.89258 2.48889 7.89586 2.3108 7.90245 2.11866C7.90915 1.92653 7.91457 1.77429 7.9191 1.66214C7.92362 1.54988 7.92571 1.4311 7.92571 1.30589C7.92571 1.18067 7.91789 1.08247 7.90245 1.0112C7.88719 0.940015 7.86376 0.87092 7.83289 0.803934C7.80183 0.737015 7.75638 0.68525 7.69673 0.648502C7.63697 0.611799 7.56266 0.582672 7.47424 0.561032C7.23954 0.509244 6.94068 0.481229 6.57752 0.476874C5.75397 0.468254 5.22481 0.52011 4.99013 0.632373C4.89714 0.679806 4.813 0.744614 4.73777 0.826595C4.65805 0.921619 4.64693 0.973475 4.70448 0.982004C4.97019 1.02082 5.1583 1.11366 5.26901 1.26045L5.3089 1.33824C5.33994 1.39436 5.37092 1.49371 5.40193 1.63617C5.4329 1.77863 5.45288 1.93621 5.46167 2.10884C5.48377 2.42408 5.48377 2.69393 5.46167 2.91841C5.4395 3.14299 5.41857 3.31781 5.39858 3.44303C5.3786 3.56824 5.34873 3.66971 5.3089 3.7474C5.26901 3.82512 5.24246 3.87262 5.22916 3.88986C5.21587 3.9071 5.2048 3.91797 5.19601 3.92223C5.13845 3.94374 5.0786 3.95469 5.01665 3.95469C4.9546 3.95469 4.87937 3.92443 4.79083 3.86396C4.70232 3.80348 4.61045 3.72041 4.51523 3.61461C4.42002 3.50879 4.31263 3.36091 4.19304 3.17095C4.07354 2.981 3.94954 2.75649 3.82113 2.49744L3.71489 2.30957C3.64847 2.18871 3.55774 2.01273 3.44261 1.78178C3.32741 1.55074 3.22559 1.32726 3.13708 1.11137C3.10169 1.0207 3.04854 0.951675 2.9777 0.904175L2.94446 0.884689C2.92236 0.867449 2.88688 0.849143 2.83821 0.829634C2.78948 0.810149 2.73862 0.796175 2.68544 0.787578L0.865588 0.800463C0.679622 0.800463 0.553442 0.841544 0.487003 0.923592L0.460413 0.962405C0.447129 0.984023 0.44043 1.01855 0.44043 1.06607C0.44043 1.11357 0.453713 1.17187 0.480303 1.2409C0.745968 1.84974 1.03487 2.43692 1.34702 3.00253C1.65917 3.56813 1.93041 4.02374 2.1606 4.36895C2.39084 4.71441 2.62552 5.04044 2.86464 5.34691C3.10376 5.65348 3.26205 5.84995 3.33949 5.93626C3.41702 6.02274 3.47793 6.08739 3.5222 6.13055L3.68827 6.28596C3.79454 6.38961 3.95059 6.51373 4.15649 6.65834C4.36244 6.80305 4.59044 6.9455 4.84062 7.08594C5.09083 7.22615 5.38193 7.34057 5.71406 7.42906C6.04614 7.51764 6.36936 7.55319 6.68376 7.53604H7.44758C7.60249 7.523 7.71985 7.4755 7.79962 7.39352L7.82605 7.36105C7.84382 7.33529 7.86046 7.29525 7.87581 7.24137C7.89135 7.18741 7.89907 7.12795 7.89907 7.06328C7.89454 6.87766 7.90903 6.71036 7.94216 6.56142C7.97526 6.41252 8.01299 6.30025 8.05519 6.22465C8.09737 6.14911 8.14497 6.08537 8.19794 6.03369C8.25102 5.9819 8.28885 5.95053 8.31104 5.93973C8.3331 5.92887 8.35071 5.9215 8.36399 5.91707C8.47025 5.88255 8.59532 5.91598 8.73936 6.01754C8.88329 6.11901 9.01829 6.24429 9.14456 6.39319C9.27076 6.54223 9.42239 6.70943 9.59947 6.89505C9.77667 7.08075 9.9316 7.21878 10.0644 7.30958L10.1972 7.3873C10.2859 7.43916 10.401 7.48666 10.5427 7.52982C10.6842 7.57297 10.8081 7.58377 10.9145 7.56219L12.6148 7.53633C12.7829 7.53633 12.9138 7.50918 13.0066 7.45531C13.0996 7.40134 13.1549 7.34189 13.1727 7.27721C13.1905 7.21247 13.1914 7.13902 13.1761 7.05691C13.1603 6.97499 13.1448 6.91772 13.1294 6.88535Z" fill="#494949"/>
</svg>

<svg width="14" height="8" fill="none" xmlns="http://www.w3.org/2000/svg"><path d="M13.13 6.885a.849.849 0 00-.044-.08c-.221-.39-.644-.866-1.268-1.432l-.014-.013-.006-.006-.007-.007h-.007a7.545 7.545 0 01-.538-.531c-.137-.173-.168-.348-.093-.525.053-.134.253-.416.598-.848.182-.229.325-.412.432-.55.766-.994 1.098-1.628.996-1.905l-.04-.064c-.026-.039-.095-.075-.205-.107a1.072 1.072 0 00-.425-.016l-1.913.013a.254.254 0 00-.133.003l-.086.02-.034.016-.026.02a.291.291 0 00-.073.067.441.441 0 00-.067.113 10.46 10.46 0 01-.71 1.458c-.164.267-.315.5-.452.696a3.362 3.362 0 01-.345.434 2.389 2.389 0 01-.253.223c-.075.056-.133.08-.172.071a4.99 4.99 0 01-.113-.026.435.435 0 01-.15-.158.697.697 0 01-.076-.253 2.717 2.717 0 01-.02-.573c.005-.134.007-.225.007-.272 0-.164.003-.342.01-.534l.016-.457c.005-.112.007-.23.007-.356a1.46 1.46 0 00-.024-.295.99.99 0 00-.07-.207.352.352 0 00-.135-.155.779.779 0 00-.223-.088 4.528 4.528 0 00-.896-.084C5.754.468 5.225.52 4.99.632a.892.892 0 00-.252.195c-.08.095-.091.146-.034.155.266.039.454.132.565.278l.04.078c.03.056.062.156.093.298.03.143.05.3.06.473.022.315.022.585 0 .81a9.26 9.26 0 01-.063.524 1.03 1.03 0 01-.17.447.113.113 0 01-.033.032.509.509 0 01-.18.033.427.427 0 01-.225-.091 1.58 1.58 0 01-.276-.25 3.335 3.335 0 01-.322-.443 7.68 7.68 0 01-.372-.674l-.106-.187a14.915 14.915 0 01-.272-.528 10.046 10.046 0 01-.306-.67.428.428 0 00-.16-.208l-.033-.02a.719.719 0 00-.259-.097L.865.8C.68.8.554.842.488.924L.46.962a.205.205 0 00-.02.104c0 .048.014.106.04.175.266.609.555 1.196.867 1.762.312.565.583 1.02.814 1.366.23.345.465.671.704.978.239.306.397.503.474.59.078.086.139.15.183.194l.166.155c.107.104.263.228.468.372.206.145.434.287.685.428.25.14.54.255.873.343.332.089.655.124.97.107h.764a.536.536 0 00.352-.142l.026-.033a.423.423 0 00.05-.12.642.642 0 00.023-.178c-.004-.185.01-.353.043-.502.033-.148.071-.26.113-.336a.83.83 0 01.256-.285.442.442 0 01.053-.023c.106-.034.231-.001.375.1.144.102.28.227.406.376.126.15.277.316.454.502.178.186.333.324.465.415l.133.077c.089.052.204.1.346.143a.762.762 0 00.372.032l1.7-.026a.787.787 0 00.392-.08c.093-.055.148-.114.166-.179a.49.49 0 00.003-.22.803.803 0 00-.047-.172z" fill="#494949"/></svg>
